report_00007_2020-12-11T15:55:29.892Z/uses-long-cache-ttl/comparison/line/1_vs_2.svg

<svg width="640" height="500" xmlns="http://www.w3.org/2000/svg" xmlns:xlink="http://www.w3.org/1999/xlink"><path fill="#fff" d="M0 0h640v500H0z"/><defs><path id="d" stroke-width=".222" stroke="currentColor" d="M-1-1h2v2h-2z"/><path id="b" stroke-width=".222" stroke="currentColor" d="M0-1.33l-1.33 2h2.66z"/><path id="f" stroke-width=".222" stroke="currentColor" d="M0 1.33L1.265.411.782-1.067l-1.564-.009-.483 1.487z"/><use xlink:href="#b" id="c" stroke="currentColor" transform="rotate(180)"/><use xlink:href="#d" id="e" stroke="currentColor" transform="rotate(45)"/><circle id="a" stroke-width=".222" stroke="currentColor" cx="0" cy="0" r="1"/></defs><g fill="none" color="#000" stroke="currentColor"><path stroke="#000" d="M78.8 411.1h9m527.2 0h-9"/><text transform="translate(70.5 415)" stroke="none" fill="#000" font-family="Arial" font-size="12" text-anchor="end"><tspan>558200</tspan></text></g><g fill="none" color="#000" stroke="currentColor"><path stroke="#000" d="M78.8 368.2h9m527.2 0h-9"/><text transform="translate(70.5 372.1)" stroke="none" fill="#000" font-family="Arial" font-size="12" text-anchor="end"><tspan>558400</tspan></text></g><g fill="none" color="#000" stroke="currentColor"><path stroke="#000" d="M78.8 325.3h9m527.2 0h-9"/><text transform="translate(70.5 329.2)" stroke="none" fill="#000" font-family="Arial" font-size="12" text-anchor="end"><tspan>558600</tspan></text></g><g fill="none" color="#000" stroke="currentColor"><path stroke="#000" d="M78.8 282.4h9m527.2 0h-9"/><text transform="translate(70.5 286.3)" stroke="none" fill="#000" font-family="Arial" font-size="12" text-anchor="end"><tspan>558800</tspan></text></g><g fill="none" color="#000" stroke="currentColor"><path stroke="#000" d="M78.8 239.5h9m527.2 0h-9"/><text transform="translate(70.5 243.4)" stroke="none" fill="#000" font-family="Arial" font-size="12" text-anchor="end"><tspan>559000</tspan></text></g><g fill="none" color="#000" stroke="currentColor"><path stroke="#000" d="M78.8 196.6h9m527.2 0h-9"/><text transform="translate(70.5 200.5)" stroke="none" fill="#000" font-family="Arial" font-size="12" text-anchor="end"><tspan>559200</tspan></text></g><g fill="none" color="#000" stroke="currentColor"><path stroke="#000" d="M78.8 153.7h9m527.2 0h-9"/><text transform="translate(70.5 157.6)" stroke="none" fill="#000" font-family="Arial" font-size="12" text-anchor="end"><tspan>559400</tspan></text></g><g fill="none" color="#000" stroke="currentColor"><path stroke="#000" d="M78.8 110.7h9m527.2 0h-9"/><text transform="translate(70.5 114.6)" stroke="none" fill="#000" font-family="Arial" font-size="12" text-anchor="end"><tspan>559600</tspan></text></g><g fill="none" color="#000" stroke="currentColor"><path stroke="#000" d="M78.8 67.8h9m527.2 0h-9"/><text transform="translate(70.5 71.7)" stroke="none" fill="#000" font-family="Arial" font-size="12" text-anchor="end"><tspan>559800</tspan></text></g><g fill="none" color="#000" stroke="currentColor"><path stroke="#000" d="M78.8 24.9h9m527.2 0h-9"/><text transform="translate(70.5 28.8)" stroke="none" fill="#000" font-family="Arial" font-size="12" text-anchor="end"><tspan>560000</tspan></text></g><g fill="none" color="#000" stroke="currentColor"><path stroke="#000" d="M78.8 428v-9m0-400.9v9"/><text transform="translate(78.8 449.9)" stroke="none" fill="#000" font-family="Arial" font-size="12" text-anchor="middle"><tspan>0</tspan></text></g><g fill="none" color="#000" stroke="currentColor"><path stroke="#000" d="M133 428v-9m0-400.9v9"/><text transform="translate(133 449.9)" stroke="none" fill="#000" font-family="Arial" font-size="12" text-anchor="middle"><tspan>10</tspan></text></g><g fill="none" color="#000" stroke="currentColor"><path stroke="#000" d="M187.1 428v-9m0-400.9v9"/><text transform="translate(187.1 449.9)" stroke="none" fill="#000" font-family="Arial" font-size="12" text-anchor="middle"><tspan>20</tspan></text></g><g fill="none" color="#000" stroke="currentColor"><path stroke="#000" d="M241.3 428v-9m0-400.9v9"/><text transform="translate(241.3 449.9)" stroke="none" fill="#000" font-family="Arial" font-size="12" text-anchor="middle"><tspan>30</tspan></text></g><g fill="none" color="#000" stroke="currentColor"><path stroke="#000" d="M295.4 428v-9m0-400.9v9"/><text transform="translate(295.4 449.9)" stroke="none" fill="#000" font-family="Arial" font-size="12" text-anchor="middle"><tspan>40</tspan></text></g><g fill="none" color="#000" stroke="currentColor"><path stroke="#000" d="M349.6 428v-9m0-400.9v9"/><text transform="translate(349.6 449.9)" stroke="none" fill="#000" font-family="Arial" font-size="12" text-anchor="middle"><tspan>50</tspan></text></g><g fill="none" color="#000" stroke="currentColor"><path stroke="#000" d="M403.8 428v-9m0-400.9v9"/><text transform="translate(403.8 449.9)" stroke="none" fill="#000" font-family="Arial" font-size="12" text-anchor="middle"><tspan>60</tspan></text></g><g fill="none" color="#000" stroke="currentColor"><path stroke="#000" d="M457.9 428v-9m0-400.9v9"/><text transform="translate(457.9 449.9)" stroke="none" fill="#000" font-family="Arial" font-size="12" text-anchor="middle"><tspan>70</tspan></text></g><g fill="none" color="#000" stroke="currentColor"><path stroke="#000" d="M512.1 428v-9m0-400.9v9"/><text transform="translate(512.1 449.9)" stroke="none" fill="#000" font-family="Arial" font-size="12" text-anchor="middle"><tspan>80</tspan></text></g><g fill="none" color="#000" stroke="currentColor"><path stroke="#000" d="M566.3 428v-9m0-400.9v9"/><text transform="translate(566.3 449.9)" stroke="none" fill="#000" font-family="Arial" font-size="12" text-anchor="middle"><tspan>90</tspan></text></g><path stroke="#000" d="M78.8 18.1V428H615V18.1H78.8z" fill="none" color="#000"/><text transform="translate(288.1 467.9)" stroke="none" fill="#000" font-family="Arial" font-size="12" text-anchor="end" color="#000"><tspan>pages</tspan></text><path stroke="#9400D3" d="M296.4 464h42.2M78.8 203.7l5.4-20.8 5.4-7.1 5.4-4.4 5.5-4.4 5.4-3.7 5.4-4.4 5.4-4.4 5.4-4.4 5.4-4.4 5.5-4.4 5.4-5.1 5.4-4.4 5.4-4.4 5.4-3.8 5.4-4.4 5.5-4.4 5.4-4.5 5.4-4.4 5.4-4.4 5.4-4.4 5.4-4.4 5.5-5.1 5.4-5.2 5.4-4.4 5.4-4.4 5.4-3.7 5.4-4.4 5.5-4.4 5.4-4.4 5.4-4.4 5.4-4.4 5.4-4.5 5.4-4.4 5.4-4.4 5.5-4.2 5.4-4.4 5.4 394.1 5.4-1.3 5.4-1.4 5.4-1.3 5.5-1.4 5.4-2.1 5.4-1.2 5.4-1.3 5.4-1.8 5.4-1.3 5.5-1.4 5.4-1.4 5.4-1.3 5.4-1.4 5.4-1.3 5.4-1.4 5.5-1.3 5.4-1.4 5.4-1.3 5.4-4 5.4-4.4 5.4-4.4 5.5-4.4 5.4-3.7 5.4-4.4 5.4-4.4 5.4-4.4 5.4-5.2 5.5-4.4 5.4-4.2 5.4-4.4 5.4 3.2 5.4 16.7 5.4-4.2 5.4-4.3 5.5-5 5.4-4.2 5.4-4.3 5.4-4.2 5.4-4.3 5.4-4.2 5.5-4.3 5.4-4.2 5.4-4.3 5.4-4.2 5.4-4.3 5.4-4.2 5.5-3.5 5.4-9.7 5.4-5.4 5.4-75.3 5.4-4.2 5.4-4.3 5.5 65 5.4-5.2 5.4-4.4 5.4-3.8 5.4-4.4 5.4-4.4 5.5-4.4 5.4-4.4 5.4-4.4 5.4-4.4" fill="none" color="#000"/><text transform="translate(288.1 485.9)" stroke="none" fill="#000" font-family="Arial" font-size="12" text-anchor="end" color="#000"><tspan>pages+cached</tspan></text><path stroke="#009E73" d="M296.4 482h42.2M78.8 220l5.4-51.1 5.4.2 5.4 3.6 5.5-1.6 5.4-.2 5.4-.8 5.4 2.9 5.4-.2 5.4-.7 5.5 1.6 5.4-3 5.4.3 5.4-.9 5.4 1.5 5.4.2 5.5-1.4 5.4-.4 5.4-.2 5.4-.4 5.4-1.2 5.4 3.8 5.5-2.5 5.4-.4h5.4l5.4 3.4 5.4-2.2 5.4.4 5.5-1.6 5.4 4.2 5.4-.7 5.4-2.5 5.4.3 5.4-2.1 5.4 4h5.5l5.4.7 5.4 1.1 5.4-3.7 5.4 2.2 5.4 1.7 5.5-1.2 5.4-4 5.4 3.4 5.4-.9 5.4 2.4h5.4l5.5-.5 5.4 1.3 5.4-8.4 5.4 5.8 5.4-2.8 5.4-1.4 5.5 6.3 5.4-3.8 5.4-.6 5.4 3.8 5.4-5.3 5.4 4.7 5.5-4.2 5.4 2.6 5.4 1.3 5.4-3.8 5.4 4 5.4-1.7 5.5-1.5 5.4-.7 5.4-.5 5.4 6.5 5.4-4.5 5.4 3.6 5.4-4.4 5.5 3.4 5.4-2.5 5.4-5.5 5.4 7.4 5.4.4 5.4-.8 5.5 1 5.4.7 5.4-1.5 5.4-3.6 5.4 2.4 5.4-2.2 5.5 3.1 5.4-1.2 5.4 1.3 5.4-1.5 5.4 1.4 5.4 2.9 5.5-6.6 5.4-.1 5.4 4.2 5.4-2.8 5.4 1.3 5.4 3.2 5.5-1.7 5.4 2.3 5.4-5.2 5.4 2" fill="none" color="#000"/><text transform="translate(504.6 467.9)" stroke="none" fill="#000" font-family="Arial" font-size="12" text-anchor="end" color="#000"><tspan>score p10=28672</tspan></text><path stroke="#56B4E9" d="M512.9 464h42.2" fill="none" color="#000"/><g><text transform="translate(504.6 485.9)" stroke="none" fill="#000" font-family="Arial" font-size="12" text-anchor="end" color="#000"><tspan>score median=131072</tspan></text><path stroke="#E69F00" d="M512.9 482h42.2" fill="none" color="#000"/></g><g fill="none" color="#000" stroke="currentColor"><path stroke="#000" d="M78.8 18.1V428H615V18.1H78.8z"/></g></svg>

<?xml version="1.0" encoding="utf-8"  standalone="no"?>
<svg 
 width="640" height="500"
 viewBox="0 0 640 500"
 xmlns="http://www.w3.org/2000/svg"
 xmlns:xlink="http://www.w3.org/1999/xlink"
>

<title>Gnuplot</title>
<desc>Produced by GNUPLOT 5.4 patchlevel 0 </desc>

<g id="gnuplot_canvas">

<rect x="0" y="0" width="640" height="500" fill="#ffffff"/>
<defs>

	<circle id='gpDot' r='0.5' stroke-width='0.5' stroke='currentColor'/>
	<path id='gpPt0' stroke-width='0.222' stroke='currentColor' d='M-1,0 h2 M0,-1 v2'/>
	<path id='gpPt1' stroke-width='0.222' stroke='currentColor' d='M-1,-1 L1,1 M1,-1 L-1,1'/>
	<path id='gpPt2' stroke-width='0.222' stroke='currentColor' d='M-1,0 L1,0 M0,-1 L0,1 M-1,-1 L1,1 M-1,1 L1,-1'/>
	<rect id='gpPt3' stroke-width='0.222' stroke='currentColor' x='-1' y='-1' width='2' height='2'/>
	<rect id='gpPt4' stroke-width='0.222' stroke='currentColor' fill='currentColor' x='-1' y='-1' width='2' height='2'/>
	<circle id='gpPt5' stroke-width='0.222' stroke='currentColor' cx='0' cy='0' r='1'/>
	<use xlink:href='#gpPt5' id='gpPt6' fill='currentColor' stroke='none'/>
	<path id='gpPt7' stroke-width='0.222' stroke='currentColor' d='M0,-1.33 L-1.33,0.67 L1.33,0.67 z'/>
	<use xlink:href='#gpPt7' id='gpPt8' fill='currentColor' stroke='none'/>
	<use xlink:href='#gpPt7' id='gpPt9' stroke='currentColor' transform='rotate(180)'/>
	<use xlink:href='#gpPt9' id='gpPt10' fill='currentColor' stroke='none'/>
	<use xlink:href='#gpPt3' id='gpPt11' stroke='currentColor' transform='rotate(45)'/>
	<use xlink:href='#gpPt11' id='gpPt12' fill='currentColor' stroke='none'/>
	<path id='gpPt13' stroke-width='0.222' stroke='currentColor' d='M0,1.330 L1.265,0.411 L0.782,-1.067 L-0.782,-1.076 L-1.265,0.411 z'/>
	<use xlink:href='#gpPt13' id='gpPt14' fill='currentColor' stroke='none'/>
	<filter id='textbox' filterUnits='objectBoundingBox' x='0' y='0' height='1' width='1'>
	  <feFlood flood-color='#FFFFFF' flood-opacity='1' result='bgnd'/>
	  <feComposite in='SourceGraphic' in2='bgnd' operator='atop'/>
	</filter>
	<filter id='greybox' filterUnits='objectBoundingBox' x='0' y='0' height='1' width='1'>
	  <feFlood flood-color='lightgrey' flood-opacity='1' result='grey'/>
	  <feComposite in='SourceGraphic' in2='grey' operator='atop'/>
	</filter>
</defs>
<g fill="none" color="#FFFFFF" stroke="black" stroke-width="1.00" stroke-linecap="butt" stroke-linejoin="miter">
</g>
<g fill="none" color="black" stroke="currentColor" stroke-width="1.00" stroke-linecap="butt" stroke-linejoin="miter">
	<path stroke='black'  d='M78.8,411.1 L87.8,411.1 M615.0,411.1 L606.0,411.1  '/>	<g transform="translate(70.5,415.0)" stroke="none" fill="black" font-family="Arial" font-size="12.00"  text-anchor="end">
		<text><tspan font-family="Arial" > 558200</tspan></text>
	</g>
</g>
<g fill="none" color="black" stroke="currentColor" stroke-width="1.00" stroke-linecap="butt" stroke-linejoin="miter">
	<path stroke='black'  d='M78.8,368.2 L87.8,368.2 M615.0,368.2 L606.0,368.2  '/>	<g transform="translate(70.5,372.1)" stroke="none" fill="black" font-family="Arial" font-size="12.00"  text-anchor="end">
		<text><tspan font-family="Arial" > 558400</tspan></text>
	</g>
</g>
<g fill="none" color="black" stroke="currentColor" stroke-width="1.00" stroke-linecap="butt" stroke-linejoin="miter">
	<path stroke='black'  d='M78.8,325.3 L87.8,325.3 M615.0,325.3 L606.0,325.3  '/>	<g transform="translate(70.5,329.2)" stroke="none" fill="black" font-family="Arial" font-size="12.00"  text-anchor="end">
		<text><tspan font-family="Arial" > 558600</tspan></text>
	</g>
</g>
<g fill="none" color="black" stroke="currentColor" stroke-width="1.00" stroke-linecap="butt" stroke-linejoin="miter">
	<path stroke='black'  d='M78.8,282.4 L87.8,282.4 M615.0,282.4 L606.0,282.4  '/>	<g transform="translate(70.5,286.3)" stroke="none" fill="black" font-family="Arial" font-size="12.00"  text-anchor="end">
		<text><tspan font-family="Arial" > 558800</tspan></text>
	</g>
</g>
<g fill="none" color="black" stroke="currentColor" stroke-width="1.00" stroke-linecap="butt" stroke-linejoin="miter">
	<path stroke='black'  d='M78.8,239.5 L87.8,239.5 M615.0,239.5 L606.0,239.5  '/>	<g transform="translate(70.5,243.4)" stroke="none" fill="black" font-family="Arial" font-size="12.00"  text-anchor="end">
		<text><tspan font-family="Arial" > 559000</tspan></text>
	</g>
</g>
<g fill="none" color="black" stroke="currentColor" stroke-width="1.00" stroke-linecap="butt" stroke-linejoin="miter">
	<path stroke='black'  d='M78.8,196.6 L87.8,196.6 M615.0,196.6 L606.0,196.6  '/>	<g transform="translate(70.5,200.5)" stroke="none" fill="black" font-family="Arial" font-size="12.00"  text-anchor="end">
		<text><tspan font-family="Arial" > 559200</tspan></text>
	</g>
</g>
<g fill="none" color="black" stroke="currentColor" stroke-width="1.00" stroke-linecap="butt" stroke-linejoin="miter">
	<path stroke='black'  d='M78.8,153.7 L87.8,153.7 M615.0,153.7 L606.0,153.7  '/>	<g transform="translate(70.5,157.6)" stroke="none" fill="black" font-family="Arial" font-size="12.00"  text-anchor="end">
		<text><tspan font-family="Arial" > 559400</tspan></text>
	</g>
</g>
<g fill="none" color="black" stroke="currentColor" stroke-width="1.00" stroke-linecap="butt" stroke-linejoin="miter">
	<path stroke='black'  d='M78.8,110.7 L87.8,110.7 M615.0,110.7 L606.0,110.7  '/>	<g transform="translate(70.5,114.6)" stroke="none" fill="black" font-family="Arial" font-size="12.00"  text-anchor="end">
		<text><tspan font-family="Arial" > 559600</tspan></text>
	</g>
</g>
<g fill="none" color="black" stroke="currentColor" stroke-width="1.00" stroke-linecap="butt" stroke-linejoin="miter">
	<path stroke='black'  d='M78.8,67.8 L87.8,67.8 M615.0,67.8 L606.0,67.8  '/>	<g transform="translate(70.5,71.7)" stroke="none" fill="black" font-family="Arial" font-size="12.00"  text-anchor="end">
		<text><tspan font-family="Arial" > 559800</tspan></text>
	</g>
</g>
<g fill="none" color="black" stroke="currentColor" stroke-width="1.00" stroke-linecap="butt" stroke-linejoin="miter">
	<path stroke='black'  d='M78.8,24.9 L87.8,24.9 M615.0,24.9 L606.0,24.9  '/>	<g transform="translate(70.5,28.8)" stroke="none" fill="black" font-family="Arial" font-size="12.00"  text-anchor="end">
		<text><tspan font-family="Arial" > 560000</tspan></text>
	</g>
</g>
<g fill="none" color="black" stroke="currentColor" stroke-width="1.00" stroke-linecap="butt" stroke-linejoin="miter">
	<path stroke='black'  d='M78.8,428.0 L78.8,419.0 M78.8,18.1 L78.8,27.1  '/>	<g transform="translate(78.8,449.9)" stroke="none" fill="black" font-family="Arial" font-size="12.00"  text-anchor="middle">
		<text><tspan font-family="Arial" > 0</tspan></text>
	</g>
</g>
<g fill="none" color="black" stroke="currentColor" stroke-width="1.00" stroke-linecap="butt" stroke-linejoin="miter">
	<path stroke='black'  d='M133.0,428.0 L133.0,419.0 M133.0,18.1 L133.0,27.1  '/>	<g transform="translate(133.0,449.9)" stroke="none" fill="black" font-family="Arial" font-size="12.00"  text-anchor="middle">
		<text><tspan font-family="Arial" > 10</tspan></text>
	</g>
</g>
<g fill="none" color="black" stroke="currentColor" stroke-width="1.00" stroke-linecap="butt" stroke-linejoin="miter">
	<path stroke='black'  d='M187.1,428.0 L187.1,419.0 M187.1,18.1 L187.1,27.1  '/>	<g transform="translate(187.1,449.9)" stroke="none" fill="black" font-family="Arial" font-size="12.00"  text-anchor="middle">
		<text><tspan font-family="Arial" > 20</tspan></text>
	</g>
</g>
<g fill="none" color="black" stroke="currentColor" stroke-width="1.00" stroke-linecap="butt" stroke-linejoin="miter">
	<path stroke='black'  d='M241.3,428.0 L241.3,419.0 M241.3,18.1 L241.3,27.1  '/>	<g transform="translate(241.3,449.9)" stroke="none" fill="black" font-family="Arial" font-size="12.00"  text-anchor="middle">
		<text><tspan font-family="Arial" > 30</tspan></text>
	</g>
</g>
<g fill="none" color="black" stroke="currentColor" stroke-width="1.00" stroke-linecap="butt" stroke-linejoin="miter">
	<path stroke='black'  d='M295.4,428.0 L295.4,419.0 M295.4,18.1 L295.4,27.1  '/>	<g transform="translate(295.4,449.9)" stroke="none" fill="black" font-family="Arial" font-size="12.00"  text-anchor="middle">
		<text><tspan font-family="Arial" > 40</tspan></text>
	</g>
</g>
<g fill="none" color="black" stroke="currentColor" stroke-width="1.00" stroke-linecap="butt" stroke-linejoin="miter">
	<path stroke='black'  d='M349.6,428.0 L349.6,419.0 M349.6,18.1 L349.6,27.1  '/>	<g transform="translate(349.6,449.9)" stroke="none" fill="black" font-family="Arial" font-size="12.00"  text-anchor="middle">
		<text><tspan font-family="Arial" > 50</tspan></text>
	</g>
</g>
<g fill="none" color="black" stroke="currentColor" stroke-width="1.00" stroke-linecap="butt" stroke-linejoin="miter">
	<path stroke='black'  d='M403.8,428.0 L403.8,419.0 M403.8,18.1 L403.8,27.1  '/>	<g transform="translate(403.8,449.9)" stroke="none" fill="black" font-family="Arial" font-size="12.00"  text-anchor="middle">
		<text><tspan font-family="Arial" > 60</tspan></text>
	</g>
</g>
<g fill="none" color="black" stroke="currentColor" stroke-width="1.00" stroke-linecap="butt" stroke-linejoin="miter">
	<path stroke='black'  d='M457.9,428.0 L457.9,419.0 M457.9,18.1 L457.9,27.1  '/>	<g transform="translate(457.9,449.9)" stroke="none" fill="black" font-family="Arial" font-size="12.00"  text-anchor="middle">
		<text><tspan font-family="Arial" > 70</tspan></text>
	</g>
</g>
<g fill="none" color="black" stroke="currentColor" stroke-width="1.00" stroke-linecap="butt" stroke-linejoin="miter">
	<path stroke='black'  d='M512.1,428.0 L512.1,419.0 M512.1,18.1 L512.1,27.1  '/>	<g transform="translate(512.1,449.9)" stroke="none" fill="black" font-family="Arial" font-size="12.00"  text-anchor="middle">
		<text><tspan font-family="Arial" > 80</tspan></text>
	</g>
</g>
<g fill="none" color="black" stroke="currentColor" stroke-width="1.00" stroke-linecap="butt" stroke-linejoin="miter">
	<path stroke='black'  d='M566.3,428.0 L566.3,419.0 M566.3,18.1 L566.3,27.1  '/>	<g transform="translate(566.3,449.9)" stroke="none" fill="black" font-family="Arial" font-size="12.00"  text-anchor="middle">
		<text><tspan font-family="Arial" > 90</tspan></text>
	</g>
</g>
<g fill="none" color="black" stroke="currentColor" stroke-width="1.00" stroke-linecap="butt" stroke-linejoin="miter">
</g>
<g fill="none" color="black" stroke="currentColor" stroke-width="1.00" stroke-linecap="butt" stroke-linejoin="miter">
	<path stroke='black'  d='M78.8,18.1 L78.8,428.0 L615.0,428.0 L615.0,18.1 L78.8,18.1 Z  '/></g>
<g fill="none" color="black" stroke="currentColor" stroke-width="1.00" stroke-linecap="butt" stroke-linejoin="miter">
</g>
	<g id="gnuplot_plot_1" ><title>pages</title>
<g fill="none" color="black" stroke="currentColor" stroke-width="1.00" stroke-linecap="butt" stroke-linejoin="miter">
	<g transform="translate(288.1,467.9)" stroke="none" fill="black" font-family="Arial" font-size="12.00"  text-anchor="end">
		<text><tspan font-family="Arial" >pages</tspan></text>
	</g>
</g>
<g fill="none" color="black" stroke="currentColor" stroke-width="1.00" stroke-linecap="butt" stroke-linejoin="miter">
	<path stroke='rgb(148,   0, 211)'  d='M296.4,464.0 L338.6,464.0 M78.8,203.7 L84.2,182.9 L89.6,175.8 L95.0,171.4 L100.5,167.0 L105.9,163.3
		L111.3,158.9 L116.7,154.5 L122.1,150.1 L127.5,145.7 L133.0,141.3 L138.4,136.2 L143.8,131.8 L149.2,127.4
		L154.6,123.6 L160.0,119.2 L165.5,114.8 L170.9,110.3 L176.3,105.9 L181.7,101.5 L187.1,97.1 L192.5,92.7
		L198.0,87.6 L203.4,82.4 L208.8,78.0 L214.2,73.6 L219.6,69.9 L225.0,65.5 L230.5,61.1 L235.9,56.7
		L241.3,52.3 L246.7,47.9 L252.1,43.4 L257.5,39.0 L262.9,34.6 L268.4,30.4 L273.8,26.0 L279.2,420.1
		L284.6,418.8 L290.0,417.4 L295.4,416.1 L300.9,414.7 L306.3,412.6 L311.7,411.4 L317.1,410.1 L322.5,408.3
		L327.9,407.0 L333.4,405.6 L338.8,404.2 L344.2,402.9 L349.6,401.5 L355.0,400.2 L360.4,398.8 L365.9,397.5
		L371.3,396.1 L376.7,394.8 L382.1,390.8 L387.5,386.4 L392.9,382.0 L398.4,377.6 L403.8,373.9 L409.2,369.5
		L414.6,365.1 L420.0,360.7 L425.4,355.5 L430.9,351.1 L436.3,346.9 L441.7,342.5 L447.1,345.7 L452.5,362.4
		L457.9,358.2 L463.3,353.9 L468.8,348.9 L474.2,344.7 L479.6,340.4 L485.0,336.2 L490.4,331.9 L495.8,327.7
		L501.3,323.4 L506.7,319.2 L512.1,314.9 L517.5,310.7 L522.9,306.4 L528.3,302.2 L533.8,298.7 L539.2,289.0
		L544.6,283.6 L550.0,208.3 L555.4,204.1 L560.8,199.8 L566.3,264.8 L571.7,259.6 L577.1,255.2 L582.5,251.4
		L587.9,247.0 L593.3,242.6 L598.8,238.2 L604.2,233.8 L609.6,229.4 L615.0,225.0  '/></g>
	</g>
	<g id="gnuplot_plot_2" ><title>pages+cached</title>
<g fill="none" color="black" stroke="currentColor" stroke-width="1.00" stroke-linecap="butt" stroke-linejoin="miter">
	<g transform="translate(288.1,485.9)" stroke="none" fill="black" font-family="Arial" font-size="12.00"  text-anchor="end">
		<text><tspan font-family="Arial" >pages+cached</tspan></text>
	</g>
</g>
<g fill="none" color="black" stroke="currentColor" stroke-width="1.00" stroke-linecap="butt" stroke-linejoin="miter">
	<path stroke='rgb(  0, 158, 115)'  d='M296.4,482.0 L338.6,482.0 M78.8,220.0 L84.2,168.9 L89.6,169.1 L95.0,172.7 L100.5,171.1 L105.9,170.9
		L111.3,170.1 L116.7,173.0 L122.1,172.8 L127.5,172.1 L133.0,173.7 L138.4,170.7 L143.8,171.0 L149.2,170.1
		L154.6,171.6 L160.0,171.8 L165.5,170.4 L170.9,170.0 L176.3,169.8 L181.7,169.4 L187.1,168.2 L192.5,172.0
		L198.0,169.5 L203.4,169.1 L208.8,169.1 L214.2,172.5 L219.6,170.3 L225.0,170.7 L230.5,169.1 L235.9,173.3
		L241.3,172.6 L246.7,170.1 L252.1,170.4 L257.5,168.3 L262.9,172.3 L268.4,172.3 L273.8,173.0 L279.2,174.1
		L284.6,170.4 L290.0,172.6 L295.4,174.3 L300.9,173.1 L306.3,169.1 L311.7,172.5 L317.1,171.6 L322.5,174.0
		L327.9,174.0 L333.4,173.5 L338.8,174.8 L344.2,166.4 L349.6,172.2 L355.0,169.4 L360.4,168.0 L365.9,174.3
		L371.3,170.5 L376.7,169.9 L382.1,173.7 L387.5,168.4 L392.9,173.1 L398.4,168.9 L403.8,171.5 L409.2,172.8
		L414.6,169.0 L420.0,173.0 L425.4,171.3 L430.9,169.8 L436.3,169.1 L441.7,168.6 L447.1,175.1 L452.5,170.6
		L457.9,174.2 L463.3,169.8 L468.8,173.2 L474.2,170.7 L479.6,165.2 L485.0,172.6 L490.4,173.0 L495.8,172.2
		L501.3,173.2 L506.7,173.9 L512.1,172.4 L517.5,168.8 L522.9,171.2 L528.3,169.0 L533.8,172.1 L539.2,170.9
		L544.6,172.2 L550.0,170.7 L555.4,172.1 L560.8,175.0 L566.3,168.4 L571.7,168.3 L577.1,172.5 L582.5,169.7
		L587.9,171.0 L593.3,174.2 L598.8,172.5 L604.2,174.8 L609.6,169.6 L615.0,171.6  '/></g>
	</g>
	<g id="gnuplot_plot_3" ><title>score p10=28672</title>
<g fill="none" color="black" stroke="currentColor" stroke-width="1.00" stroke-linecap="butt" stroke-linejoin="miter">
	<g transform="translate(504.6,467.9)" stroke="none" fill="black" font-family="Arial" font-size="12.00"  text-anchor="end">
		<text><tspan font-family="Arial" >score p10=28672</tspan></text>
	</g>
</g>
<g fill="none" color="black" stroke="currentColor" stroke-width="1.00" stroke-linecap="butt" stroke-linejoin="miter">
	<path stroke='rgb( 86, 180, 233)'  d='M512.9,464.0 L555.1,464.0  '/></g>
	</g>
	<g id="gnuplot_plot_4" ><title>score median=131072</title>
<g fill="none" color="black" stroke="currentColor" stroke-width="1.00" stroke-linecap="butt" stroke-linejoin="miter">
	<g transform="translate(504.6,485.9)" stroke="none" fill="black" font-family="Arial" font-size="12.00"  text-anchor="end">
		<text><tspan font-family="Arial" >score median=131072</tspan></text>
	</g>
</g>
<g fill="none" color="black" stroke="currentColor" stroke-width="1.00" stroke-linecap="butt" stroke-linejoin="miter">
	<path stroke='rgb(230, 159,   0)'  d='M512.9,482.0 L555.1,482.0  '/></g>
	</g>
<g fill="none" color="#FFFFFF" stroke="rgb(230, 159,   0)" stroke-width="2.00" stroke-linecap="butt" stroke-linejoin="miter">
</g>
<g fill="none" color="black" stroke="currentColor" stroke-width="2.00" stroke-linecap="butt" stroke-linejoin="miter">
</g>
<g fill="none" color="black" stroke="black" stroke-width="1.00" stroke-linecap="butt" stroke-linejoin="miter">
</g>
<g fill="none" color="black" stroke="currentColor" stroke-width="1.00" stroke-linecap="butt" stroke-linejoin="miter">
	<path stroke='black'  d='M78.8,18.1 L78.8,428.0 L615.0,428.0 L615.0,18.1 L78.8,18.1 Z  '/></g>
<g fill="none" color="black" stroke="currentColor" stroke-width="1.00" stroke-linecap="butt" stroke-linejoin="miter">
</g>
</g>
</svg>
